img/workers/workers4.svg

<svg xmlns="http://www.w3.org/2000/svg" viewBox="0 0 612.002 612.002"><circle cx="305.78" cy="358.459" r="9.237"/><circle cx="305.78" cy="392.192" r="9.237"/><circle cx="288.92" cy="138.59" r="14.457"/><circle cx="369.603" cy="138.59" r="14.457"/><path d="M529.096 353.71S404.48 228.774 401.06 225.1c17.502-18.003 28.325-42.532 28.392-69.554 13.02-3.07 22.533-14.67 22.533-28.605 0-13.95-9.534-25.56-22.574-28.616C428.398 43.938 383.89 0 329.29 0c-54.598 0-99.103 43.932-100.123 98.312-13.077 3.03-22.636 14.645-22.636 28.63 0 13.97 9.54 25.575 22.595 28.62.07 27 10.88 51.51 28.362 69.507-3.12 3.663-51.34 52.51-72.853 74.28.298-1.483.46-3.016.46-4.586 0-12.823-10.43-23.257-23.25-23.257s-23.25 10.433-23.25 23.257c0 5.027 1.62 9.675 4.343 13.483-29.184 7.73-51.344 32.905-54.602 63.65h-16.74v12.234h47.62c.93 9.77 4.966 18.494 11.392 24.39l.327.297c.274.257.55.51.83.755l.61.557h.032c7.34 6.214 16.453 9.32 25.515 9.32 9.9 0 19.742-3.706 27.15-11.115l24.178-24.205h12.22v70.35h32.117V612H404.99V454.48h32.115v-83.5l37.33 37.346c7.408 7.416 17.247 11.126 27.15 11.126 9.06 0 18.173-3.108 25.517-9.324h.133l1.777-1.713c7.25-6.988 11.296-16.528 11.39-26.86.097-10.415-4.025-20.565-11.306-27.846zM429.46 111.19c6.09 2.637 10.292 8.674 10.292 15.75 0 7.077-4.2 13.115-10.292 15.75v-31.5zm-200.343 31.524c-6.125-2.62-10.354-8.67-10.354-15.774 0-7.105 4.23-13.155 10.354-15.775v31.55zM386.47 33.456c10.103 8.677 18.23 19.593 23.58 31.987-13.505-2.09-23.89-13.764-23.89-27.852.002-1.4.112-2.778.31-4.133zm-57.18-21.22a87.36 87.36 0 0 1 46.16 13.136c-9.264 16.66-26.847 27.184-46.19 27.184-19.324 0-36.896-10.513-46.173-27.158 13.436-8.335 29.263-13.163 46.202-13.163zm-57.23 21.26c.194 1.344.302 2.706.302 4.095 0 14.07-10.355 25.734-23.833 27.846 5.343-12.373 13.45-23.27 23.53-31.94zm-30.708 121.8v-55.083c0-7.656.986-15.085 2.832-22.17 19.343-.013 35.546-13.684 39.49-31.874a65.058 65.058 0 0 0 45.584 18.62c17.396 0 33.647-6.798 45.594-18.51 3.946 18.197 20.158 31.982 39.513 31.982h.026c1.847 6.117 2.835 14.295 2.835 21.95v55.082c0 48.512-39.448 87.978-87.937 87.978s-87.936-39.467-87.936-87.977zM352.1 268.802a24.35 24.35 0 0 0 .847-6.348c0-3.256-.677-6.423-1.9-9.358a99.543 99.543 0 0 0 31.003-12.67v46.012l-29.95-17.637zm2.793 15.843l-20.253 34.636v-33.255a24.548 24.548 0 0 0 11.4-6.594l8.853 5.213zm-49.538-15.113l-30.36 17.132v-47.22a99.636 99.636 0 0 0 31.316 13.37 24.306 24.306 0 0 0-2.012 9.64c0 2.462.374 4.836 1.057 7.078zm6.41 10.432a24.294 24.294 0 0 0 10.64 6v33.18l-19.163-34.37 8.522-4.81zm-149.923 3.777c6.073 0 11.014 4.944 11.014 11.022s-4.94 11.02-11.014 11.02c-6.075 0-11.014-4.944-11.014-11.02 0-6.078 4.94-11.022 11.014-11.022zm14.577 115.944c-10.105 10.104-26.89 10.07-37.418-.078l-.928-.89c-3.453-3.578-5.743-8.802-6.52-14.587h60.403l-15.538 15.556zm46.274-27.792h-122.03c3.87-30.34 29.82-53.875 61.18-53.875 28.55 0 52.622 19.506 59.626 45.894 0 0 1.34 5.783 1.224 7.98zm-1.223-66.617v30.815c-7.973-10.87-18.834-19.488-31.45-24.713l35.56-35.578a107.765 107.765 0 0 0-4.11 29.475zm12.235 136.967V384.13h16.823v-12.236H235.35a73.282 73.282 0 0 0-1.645-9.464v-57.154c0-26.09 10.49-50.505 29.057-68.404v70.745l29.707-16.765 29.936 53.09v61.615l-36.294 36.687h-52.407zm88.702-19.38v19.38h-19.242l19.242-19.38zm-55.492 176.9c2.846-13.763 14.293-22.144 27.964-22.144 13.668 0 25.115 8.38 27.96 22.145h-55.925zm57.02-25.23c-7.646-7.06-17.9-11.355-28.92-11.355-11.152 0-21.547 4.397-29.194 11.614V454.48h58.116v120.053zm4.696-299.966c-6.668 0-12.096-5.434-12.096-12.112 0-2.745.928-5.36 2.588-7.462 3.343.338 6.735.514 10.167.514 3.004 0 5.973-.158 8.91-.418a12.066 12.066 0 0 1 2.513 7.367 12.1 12.1 0 0 1-1.57 5.96c-2.048 3.64-5.907 5.994-10.07 6.14l-.442.01zm6.01 148.296l19.502 19.38h-19.5v-19.38zm1.095 176.9c2.846-13.763 14.293-22.144 27.964-22.144 13.668 0 25.115 8.38 27.96 22.145h-55.925zm57.02-24.97c-7.646-7.218-17.368-11.616-28.52-11.616-10.927 0-21.947 4.224-28.064 11.18v-119.88h56.586v120.315zm32.117-132.55h-53.186l-37.045-36.687v-61.4l30.933-53.222 28.712 16.907V235.51c19.513 18.028 30.587 43.02 30.587 69.767v136.967zm12.235-88.57V305.28c0-10.604-1.572-20.955-4.522-30.818l66.74 66.77-38.06 36.612-24.158-24.167zm83.925 45.427l-.525.507c-10.533 10.152-27.315 10.184-37.415.072l-13.178-13.185 38.06-36.61 12.468 12.472c4.977 4.976 7.794 11.932 7.728 19.085-.063 6.773-2.59 13.016-7.138 17.66z"/><path fill="none" stroke="#F00" stroke-width=".25" stroke-miterlimit="10" d="M525.245 408.543h3.848v3.01h-3.848z"/></svg>

<?xml version="1.0" encoding="iso-8859-1"?>
<!-- Generator: Adobe Illustrator 18.1.1, SVG Export Plug-In . SVG Version: 6.00 Build 0)  -->
<svg version="1.1" id="Capa_1" xmlns="http://www.w3.org/2000/svg" xmlns:xlink="http://www.w3.org/1999/xlink" x="0px" y="0px"
	 viewBox="0 0 612.002 612.002" style="enable-background:new 0 0 612.002 612.002;" xml:space="preserve">
<g>
	<g>
		<circle cx="305.78" cy="358.459" r="9.237"/>
		<circle cx="305.78" cy="392.192" r="9.237"/>
		<circle cx="288.92" cy="138.59" r="14.457"/>
		<circle cx="369.603" cy="138.59" r="14.457"/>
		<path d="M529.096,353.709c0,0-124.616-124.934-128.036-128.609c17.502-18.003,28.325-42.532,28.392-69.554
			c13.021-3.071,22.533-14.669,22.533-28.605c0-13.951-9.534-25.561-22.574-28.617C428.397,43.938,383.889,0,329.289,0
			c-54.597,0-99.102,43.932-100.122,98.312c-13.077,3.03-22.636,14.645-22.636,28.631c0,13.97,9.54,25.574,22.594,28.618
			c0.07,27,10.881,51.51,28.362,69.508c-3.121,3.664-51.34,52.511-72.853,74.281c0.298-1.483,0.459-3.016,0.459-4.586
			c0-12.823-10.429-23.257-23.249-23.257c-12.819,0-23.249,10.433-23.249,23.257c0,5.027,1.62,9.675,4.342,13.483
			c-29.184,7.731-51.344,32.905-54.602,63.649H71.596v12.235h47.619c0.93,9.768,4.966,18.493,11.392,24.388l0.327,0.298
			c0.274,0.257,0.551,0.509,0.83,0.755l0.61,0.557h0.032c7.341,6.215,16.453,9.321,25.515,9.321c9.899,0,19.741-3.706,27.15-11.115
			l24.177-24.205h12.221v70.349h32.116v157.521h151.404V454.48h32.116v-83.499l37.331,37.345
			c7.407,7.416,17.246,11.126,27.149,11.126c9.061,0,18.173-3.108,25.517-9.324h0.133l1.777-1.713
			c7.251-6.988,11.296-16.528,11.391-26.86C540.499,371.14,536.377,360.99,529.096,353.709z M429.46,111.192
			c6.091,2.637,10.292,8.674,10.292,15.751c0,7.076-4.201,13.114-10.292,15.749V111.192z M229.117,142.716
			c-6.125-2.62-10.354-8.67-10.354-15.774c0-7.105,4.229-13.155,10.354-15.775V142.716z M386.469,33.457
			c10.104,8.676,18.23,19.592,23.582,31.986c-13.506-2.089-23.89-13.764-23.89-27.852C386.162,36.19,386.272,34.812,386.469,33.457z
			 M329.289,12.235c16.921,0,32.732,4.817,46.16,13.137c-9.263,16.661-26.846,27.184-46.19,27.184
			c-19.323,0-36.895-10.513-46.172-27.158C296.523,17.063,312.35,12.235,329.289,12.235z M272.061,33.497
			c0.193,1.343,0.301,2.705,0.301,4.094c0,14.068-10.355,25.733-23.833,27.845C253.873,53.063,261.98,42.165,272.061,33.497z
			 M241.352,155.295v-55.082c0-7.656,0.986-15.085,2.832-22.171c19.343-0.012,35.546-13.683,39.489-31.873
			c11.949,11.715,28.196,18.621,45.585,18.621c17.396,0,33.647-6.798,45.594-18.511c3.946,18.198,20.158,31.983,39.513,31.983
			c0.009,0,0.018,0,0.026,0c1.846,6.117,2.834,14.295,2.834,21.951v55.081c0,48.512-39.448,87.978-87.937,87.978
			S241.352,203.805,241.352,155.295z M352.1,268.803c0.557-2.062,0.847-4.197,0.847-6.348c0-3.256-0.677-6.423-1.901-9.358
			c11.143-2.479,21.591-6.812,31.004-12.671v46.013L352.1,268.803z M354.893,284.646l-20.253,34.636v-33.255
			c4.325-1.116,8.286-3.406,11.401-6.594L354.893,284.646z M305.355,269.533l-30.359,17.132v-47.22
			c9.467,6.133,20.022,10.707,31.315,13.371c-1.297,3.005-2.013,6.272-2.013,9.639C304.299,264.917,304.672,267.291,305.355,269.533
			z M311.764,279.965c2.938,2.835,6.582,4.923,10.641,6.001v33.18l-19.163-34.372L311.764,279.965z M161.842,283.742
			c6.073,0,11.014,4.944,11.014,11.022s-4.94,11.02-11.014,11.02c-6.075,0-11.014-4.944-11.014-11.02
			C150.829,288.686,155.769,283.742,161.842,283.742z M176.419,399.686c-10.104,10.104-26.889,10.069-37.417-0.078l-0.928-0.889
			c-3.453-3.579-5.743-8.803-6.52-14.588h60.403L176.419,399.686z M222.694,371.894c-1.701,0-122.029,0-122.029,0
			c3.868-30.339,29.819-53.875,61.178-53.875c28.55,0,52.623,19.507,59.627,45.895C221.471,363.914,222.809,369.697,222.694,371.894
			z M221.471,305.277v30.815c-7.974-10.871-18.835-19.488-31.452-24.713l35.56-35.577
			C222.893,285.259,221.471,295.152,221.471,305.277z M233.705,442.244v-58.115h16.823v-12.235h-15.177
			c-0.341-3.222-0.902-6.377-1.646-9.464v-57.154c0-26.09,10.49-50.505,29.057-68.404v70.745l29.707-16.765l29.937,53.091v61.614
			l-36.294,36.687h-52.407V442.244z M322.407,422.864v19.38h-19.242L322.407,422.864z M266.915,599.765
			c2.846-13.764,14.293-22.145,27.964-22.145c13.669,0,25.116,8.381,27.962,22.145H266.915z M323.936,574.533
			c-7.647-7.059-17.902-11.354-28.92-11.354c-11.153,0-21.548,4.398-29.195,11.615V454.48h58.115V574.533z M328.631,274.568
			c-6.669,0-12.097-5.434-12.097-12.112c0-2.745,0.928-5.36,2.588-7.462c3.343,0.338,6.735,0.514,10.167,0.514
			c3.005,0,5.974-0.158,8.911-0.418c1.612,2.092,2.513,4.674,2.513,7.367c0,2.088-0.54,4.145-1.569,5.961
			c-2.049,3.64-5.908,5.993-10.071,6.14L328.631,274.568z M334.641,422.864l19.501,19.38h-19.501V422.864z M335.735,599.765
			c2.846-13.764,14.293-22.145,27.964-22.145c13.669,0,25.116,8.381,27.962,22.145H335.735z M392.756,574.793
			c-7.647-7.217-17.369-11.615-28.522-11.615c-10.926,0-21.946,4.224-28.063,11.179v-119.88h56.585V574.793z M424.872,442.244
			h-53.186l-37.045-36.687v-61.4l30.932-53.222l28.712,16.907V235.51c19.513,18.028,30.587,43.02,30.587,69.767V442.244z
			 M437.107,353.675v-48.397c0-10.604-1.572-20.955-4.522-30.818l66.74,66.771l-38.061,36.611L437.107,353.675z M521.032,399.101
			l-0.525,0.506c-10.533,10.152-27.315,10.184-37.415,0.072l-13.178-13.184l38.061-36.611l12.467,12.473
			c4.977,4.976,7.794,11.932,7.728,19.085C528.107,388.215,525.579,394.458,521.032,399.101z"/>
	</g>
	
		<rect x="525.245" y="408.543" style="fill:none;stroke:#FF0000;stroke-width:0.25;stroke-miterlimit:10;" width="3.848" height="3.011"/>
</g>
<g>
</g>
<g>
</g>
<g>
</g>
<g>
</g>
<g>
</g>
<g>
</g>
<g>
</g>
<g>
</g>
<g>
</g>
<g>
</g>
<g>
</g>
<g>
</g>
<g>
</g>
<g>
</g>
<g>
</g>
</svg>
